X: 11611
Q: "Moderate."
M: 2/4
L: 1/16
K: Eb
!segno!|:\
(E3F) (G3A) | (3(B2g2d2) (3(f2e2c2) | (3(=A2c2B2) (3(F2_A2G2) | E4 z4 |\
_A4 G4 | (A2B2) c4- | c2(dc) (=Bc)(F_B) | (A4 G2)Hz2 |
f4- f(edc) | c4- c(BAG) | B4- BA (GF) | E2z2 (GE)(cB) |\
z4 B3B | {d}c2c2 z4 | z2B2B2B2 | {A}G2G2 z4 |\
z4 B3B | {d}c2c2 z4 | B4 (c3d) | He8 !segno!:|"^D.C."y8


